src/img/footer-social/youtube.svg

<svg width="32" height="32" viewBox="0 0 32 32" fill="none" xmlns="http://www.w3.org/2000/svg">
<path d="M28 0H4C1.79086 0 0 1.79086 0 4V28C0 30.2091 1.79086 32 4 32H28C30.2091 32 32 30.2091 32 28V4C32 1.79086 30.2091 0 28 0Z" fill="#DC472E"/>
<path d="M18.4848 20.4844C18.4841 20.365 18.449 20.2407 18.4048 20.1291C18.3458 19.9823 18.2194 19.9093 18.0607 19.8938C17.8746 19.8756 17.7258 19.9507 17.591 20.0701C17.5369 20.1171 17.5123 20.1873 17.5123 20.1873L17.5151 23.9769V24.0703C17.5151 24.0703 17.5474 24.1139 17.5523 24.1195C17.6619 24.2382 17.7897 24.3322 17.9533 24.366C18.2229 24.4214 18.4132 24.3091 18.4659 24.0591C18.4792 23.9966 18.4869 23.932 18.4869 23.8681C18.4883 22.7397 18.4904 21.612 18.4848 20.4844ZM18.4848 20.4844C18.4841 20.365 18.449 20.2407 18.4048 20.1291C18.3458 19.9823 18.2194 19.9093 18.0607 19.8938C17.8746 19.8756 17.7258 19.9507 17.591 20.0701C17.5369 20.1171 17.5123 20.1873 17.5123 20.1873L17.5151 23.9769V24.0703C17.5151 24.0703 17.5474 24.1139 17.5523 24.1195C17.6619 24.2382 17.7897 24.3322 17.9533 24.366C18.2229 24.4214 18.4132 24.3091 18.4659 24.0591C18.4792 23.9966 18.4869 23.932 18.4869 23.8681C18.4883 22.7397 18.4904 21.612 18.4848 20.4844ZM22.728 14.7694C18.2433 14.6732 13.7564 14.6732 9.27095 14.7694C7.71495 14.8024 6.4707 16.0747 6.4707 17.6315V24.6363C6.4707 26.1937 7.71495 27.466 9.27095 27.499C13.7564 27.5952 18.2433 27.5952 22.728 27.499C24.2847 27.466 25.529 26.1937 25.529 24.6363V17.6315C25.529 16.0748 24.2847 14.8024 22.728 14.7694ZM10.5882 25.2746H9.29483V17.9629H7.95579V16.7398H11.9301V17.9601H10.5882V25.2746ZM15.2169 22.2398V25.2753H14.0717V24.5815C14.0303 24.6258 14.0071 24.6496 13.9853 24.6742C13.7389 24.9523 13.4594 25.184 13.1027 25.3069C12.9285 25.3665 12.7495 25.3869 12.5662 25.3553C12.3163 25.3139 12.1484 25.1699 12.0473 24.9424C11.9532 24.7325 11.9294 24.5078 11.9287 24.2817C11.9259 23.4461 11.9273 19.0239 11.9273 18.981H13.0697C13.0718 19.0196 13.076 22.1941 13.0767 23.7424C13.0767 23.8267 13.0774 23.9131 13.0943 23.9952C13.1364 24.203 13.2958 24.2922 13.4959 24.2192C13.7262 24.1349 13.9018 23.9762 14.0492 23.786C14.071 23.7586 14.071 23.7094 14.071 23.6701V18.974L15.2169 18.9712C15.2169 18.9713 15.2169 21.1879 15.2169 22.2398ZM19.5739 24.6686C19.4208 25.1292 19.0838 25.3637 18.5993 25.3588C18.2053 25.3553 17.8859 25.1987 17.6225 24.9129C17.5931 24.8813 17.5116 24.795 17.5116 24.795V25.2739H16.3643V16.739H17.5116C17.5116 17.6476 17.5116 19.5484 17.5116 19.5484C17.5116 19.5484 17.5762 19.4192 17.6352 19.3525C17.8128 19.1538 18.0291 19 18.2959 18.9326C18.7362 18.8223 19.2439 18.9586 19.4854 19.4732C19.6279 19.7773 19.668 20.1017 19.668 20.4317C19.6701 21.6247 19.6701 22.8177 19.6687 24.0107C19.668 24.2339 19.6448 24.4545 19.5739 24.6686ZM23.8115 24.4285C23.6127 25.0106 23.202 25.3336 22.5995 25.4221C22.226 25.4769 21.8559 25.4691 21.5055 25.3104C21.026 25.0942 20.7542 24.7031 20.6377 24.2052C20.5836 23.9735 20.5569 23.7306 20.5541 23.4925C20.545 22.5579 20.5492 21.6226 20.5513 20.6881C20.552 20.1994 20.6686 19.7486 21.0035 19.3743C21.3855 18.9467 21.8742 18.7873 22.4324 18.8231C22.6002 18.8336 22.7716 18.861 22.9309 18.9137C23.4737 19.092 23.7637 19.4986 23.8775 20.0379C23.921 20.2457 23.9372 20.4613 23.9407 20.674C23.9498 21.1726 23.9371 22.2715 23.9371 22.2715H21.7401V23.8464C21.7401 24.1294 21.969 24.3583 22.2519 24.3583C22.5342 24.3583 22.7631 24.1294 22.7631 23.8464V23.0368H23.9435C23.9435 23.0367 23.961 23.9925 23.8115 24.4285ZM22.7631 20.4107C22.7631 20.1284 22.5342 19.8988 22.2519 19.8988C21.969 19.8988 21.7401 20.1284 21.7401 20.4107V21.2947H22.7631V20.4107ZM18.4048 20.1291C18.3458 19.9824 18.2194 19.9094 18.0607 19.8939C17.8746 19.8757 17.7258 19.9508 17.591 20.0702C17.5369 20.1172 17.5123 20.1874 17.5123 20.1874L17.5151 23.977V24.0704C17.5151 24.0704 17.5474 24.1139 17.5523 24.1196C17.6619 24.2382 17.7897 24.3323 17.9533 24.366C18.2229 24.4215 18.4132 24.3091 18.4659 24.0592C18.4792 23.9967 18.4869 23.9321 18.4869 23.8682C18.4883 22.7398 18.4904 21.6121 18.4848 20.4844C18.4841 20.365 18.449 20.2407 18.4048 20.1291Z" fill="white"/>
<path d="M21.3372 6.66992L21.3369 13.0066H20.1627L20.1641 12.3258C20.0343 12.4537 19.9235 12.5731 19.8017 12.6804C19.5859 12.8706 19.3414 13.0123 19.0554 13.0683C18.6163 13.1542 18.2424 13.0153 18.1023 12.5606C18.0557 12.4092 18.0276 12.2459 18.0264 12.0878V6.66992H19.1917V11.5023C19.1917 11.5664 19.1968 11.6311 19.208 11.6939C19.2434 11.893 19.3906 11.9867 19.5824 11.9202C19.8161 11.8394 19.9945 11.6775 20.1458 11.4868C20.1673 11.4596 20.1634 11.4087 20.1634 11.3688V6.66992H21.3372Z" fill="white"/>
<path d="M11.626 7.77118C11.3711 6.69679 10.8371 4.42871 10.8371 4.42871H9.50098C9.50098 4.42871 10.5275 7.83332 10.9866 9.35169C11.0031 9.4066 11.0107 9.46621 11.0107 9.52372L11.0102 13.0054H12.2423L12.2418 9.52372C12.2418 9.46621 12.2494 9.4066 12.2659 9.35169C12.725 7.83332 13.7516 4.42871 13.7516 4.42871H12.4154C12.4154 4.42871 11.8813 6.69679 11.6265 7.77118H11.626Z" fill="white"/>
<path d="M15.36 6.51172C14.4314 6.51172 13.6787 7.26444 13.6787 8.19299V11.4833C13.6787 12.4118 14.4314 13.1646 15.36 13.1646C16.2885 13.1646 17.0413 12.4118 17.0413 11.4833V8.19299C17.0413 7.26444 16.2885 6.51172 15.36 6.51172ZM15.8452 11.5497C15.8452 11.8172 15.6275 12.0348 15.3601 12.0348C15.0926 12.0348 14.8749 11.8172 14.8749 11.5497V8.1265C14.8749 7.85897 15.0926 7.64137 15.3601 7.64137C15.6275 7.64137 15.8452 7.85904 15.8452 8.1265V11.5497Z" fill="white"/>
</svg>

<svg width="32" height="32" fill="none" xmlns="http://www.w3.org/2000/svg"><path d="M28 0H4a4 4 0 00-4 4v24a4 4 0 004 4h24a4 4 0 004-4V4a4 4 0 00-4-4z" fill="#DC472E"/><path d="M18.485 20.484c0-.119-.036-.243-.08-.355-.06-.147-.186-.22-.344-.235-.186-.018-.335.057-.47.176-.054.047-.079.117-.079.117l.003 3.79v.093l.037.05c.11.118.238.212.401.246.27.055.46-.057.513-.307a.923.923 0 00.02-.19c.002-1.13.004-2.257-.001-3.385zm0 0c0-.119-.036-.243-.08-.355-.06-.147-.186-.22-.344-.235-.186-.018-.335.057-.47.176-.054.047-.079.117-.079.117l.003 3.79v.093l.037.05c.11.118.238.212.401.246.27.055.46-.057.513-.307a.923.923 0 00.02-.19c.002-1.13.004-2.257-.001-3.385zm4.243-5.715a313.779 313.779 0 00-13.457 0 2.862 2.862 0 00-2.8 2.862v7.005a2.862 2.862 0 002.8 2.863c4.485.096 8.972.096 13.457 0a2.863 2.863 0 002.801-2.863v-7.005a2.863 2.863 0 00-2.801-2.862zm-12.14 10.506H9.295v-7.312h-1.34V16.74h3.975v1.22h-1.342v7.315zm4.629-3.035v3.035h-1.145v-.694l-.087.093c-.246.278-.526.51-.882.633-.175.06-.354.08-.537.048a.66.66 0 01-.519-.413 1.602 1.602 0 01-.118-.66c-.003-.836-.002-5.258-.002-5.301h1.143c.002.039.006 3.213.007 4.761 0 .085 0 .171.017.253.042.208.202.297.402.224a1.25 1.25 0 00.553-.433c.022-.027.022-.077.022-.116v-4.696l1.146-.003v3.269zm4.357 2.429c-.153.46-.49.695-.975.69a1.294 1.294 0 01-.977-.446l-.11-.118v.479h-1.148v-8.535h1.148v2.81s.064-.13.123-.197a1.33 1.33 0 01.66-.42c.441-.11.949.027 1.19.541.143.304.183.629.183.959.002 1.193.002 2.386 0 3.579 0 .223-.023.444-.094.658zm4.237-.24c-.198.582-.609.905-1.212.993-.373.055-.743.047-1.093-.112-.48-.216-.752-.607-.868-1.105a3.33 3.33 0 01-.084-.712c-.009-.935-.005-1.87-.003-2.805.001-.489.118-.94.453-1.314.381-.427.87-.587 1.428-.55.168.01.34.037.499.09.543.178.833.585.947 1.124.043.208.06.423.063.636a78.65 78.65 0 01-.004 1.598H21.74v1.574a.512.512 0 101.023 0v-.81h1.18s.018.956-.132 1.392zm-1.048-4.018a.512.512 0 10-1.023 0v.884h1.023v-.884zm-4.358-.282c-.06-.147-.186-.22-.344-.235-.186-.018-.335.057-.47.176-.054.047-.079.117-.079.117l.003 3.79v.093l.037.05c.11.118.238.212.401.246.27.056.46-.057.513-.307a.923.923 0 00.02-.19c.002-1.13.004-2.257-.001-3.385 0-.119-.036-.243-.08-.355zM21.337 6.67v6.337h-1.174l.001-.681c-.13.128-.24.247-.362.354-.216.19-.46.332-.747.388-.439.086-.813-.053-.953-.507a1.674 1.674 0 01-.076-.473V6.67h1.166v4.832c0 .064.005.13.016.192.035.199.183.293.374.226.234-.08.412-.242.564-.433.021-.027.017-.078.017-.118v-4.7h1.174zm-9.711 1.101c-.255-1.074-.789-3.342-.789-3.342H9.501l1.486 4.923a.605.605 0 01.024.172v3.481h1.231V9.524c0-.058.007-.117.024-.172l1.486-4.923h-1.337l-.788 3.342h-.001zm3.734-1.259a1.68 1.68 0 00-1.681 1.681v3.29a1.681 1.681 0 003.362 0v-3.29a1.68 1.68 0 00-1.681-1.681zm.485 5.038a.486.486 0 01-.97 0V8.126a.486.486 0 01.97 0v3.424z" fill="#fff"/></svg>
